!!! OTL: Io-, Ni/, Gu-, Nian/, Gan^, Jie/ (Lady hurry on street)
!!! YEC: COpyright 2001, Chia-wei Lee
!! For Voice Only
**kern	**silbe
*clefG2	*LXhinhua
*B-:	*ping-ying
*M4/4	*
=14	=14
8g	Cha/
8b	Shan-
Q1ff6	Po-
Q16gg	Shang\
2.dd	|
=15	=15
8b	Tai\
8g	Yang/
(16b	Hong/
[8.dd	|
4dd])	|
16dd	Ai\
8.cc;	Io
=16	=16
8g	Io-
8b	Ni/
Q16b	GU-
Q16cc	|
2.g	Nian/
=17	=17
8b	Shu-
8d	Chuang-
4d	Man/
q8d	Ai\
2.g;	Io
*M4/4	*
=18	=18
4b	Cha/
4dd	Hua-
Q16ff	Duo^
Q16dd	|
2.cc;	Duo^
*M5/4	*
=19	=19
8b	To/
8g	Shan\
(16b	Dei\
8.dd	|
4cc)	|
16dd	Ai\
8.cc	IO,
4r;	.
*M4/4	*
=20	=20
8g	Er^
8b	Huan/
16cc	Shan^
[8.g	Shan^
2g];	|
*M5/4	*
=21	=21
(16cc	Ding-
16dd)	|
(16ff	Dang-
16gg)	|
(16ff	Siang^
[8.dd	|
4dd])	|
16b	Ai\
8.g	Io
4r	.
*-	*-
